outputs/icons/enterprise/road_map_round.svg

<svg xmlns="http://www.w3.org/2000/svg" width="1200" height="1200" fill="none"><path fill="#000" d="M755.42 631.25c16.81.005 31.3 12.945 32.08 29.735a31.3 31.3 0 0 1-1.905 12.405 31.3 31.3 0 0 1-6.69 10.69c-2.92 3.065-6.46 5.465-10.35 7.13-3.895 1.665-8.07 2.545-12.305 2.54h-500c-8.288 0-16.258 3.27-22.119 9.13S225 716.71 225 725v187.5c0 8.29 3.27 16.26 9.131 22.12s13.831 9.13 22.119 9.13h99.121l-40.43-40.43c-2.898-2.9-5.169-6.37-6.738-10.155a31.3 31.3 0 0 1-2.393-11.965 31.4 31.4 0 0 1 2.393-11.96 31.3 31.3 0 0 1 6.738-10.11 31.4 31.4 0 0 1 10.156-6.785 31.3 31.3 0 0 1 11.963-2.395c4.105 0 8.171.825 11.964 2.395a31.4 31.4 0 0 1 10.155 6.785L475 974.95l-115.967 115.87a31.1 31.1 0 0 1-10.107 6.785 31.4 31.4 0 0 1-12.012 2.395 31.2 31.2 0 0 1-11.963-2.395 31.1 31.1 0 0 1-10.107-6.785c-2.897-2.9-5.218-6.32-6.787-10.105a31.4 31.4 0 0 1-2.393-11.965c0-4.1.824-8.175 2.393-11.965a31.4 31.4 0 0 1 6.787-10.155l40.478-40.38H256.25c-24.864 0-48.727-9.86-66.308-27.44A93.78 93.78 0 0 1 162.5 912.5V725a93.78 93.78 0 0 1 27.442-66.31c17.581-17.58 41.444-27.44 66.308-27.44z"/><path fill="#000" fill-rule="evenodd" d="M662.5 850c33.15 0 64.935 13.18 88.38 36.62A125 125 0 0 1 787.5 975c0 33.15-13.18 64.935-36.62 88.38A125 125 0 0 1 662.5 1100c-33.15 0-64.935-13.18-88.38-36.62A125 125 0 0 1 537.5 975c0-33.15 13.18-64.935 36.62-88.38A125 125 0 0 1 662.5 850m0 62.5a62.5 62.5 0 0 0-44.19 18.31A62.5 62.5 0 0 0 600 975c0 16.575 6.59 32.47 18.31 44.19a62.5 62.5 0 0 0 44.19 18.31c16.575 0 32.47-6.59 44.19-18.31A62.5 62.5 0 0 0 725 975c0-16.575-6.59-32.47-18.31-44.19a62.5 62.5 0 0 0-44.19-18.31M975 537.5c33.15 0 64.935 13.18 88.38 36.62A125 125 0 0 1 1100 662.5c0 33.15-13.18 64.935-36.62 88.38A125 125 0 0 1 975 787.5c-33.15 0-64.935-13.18-88.38-36.62A125 125 0 0 1 850 662.5c0-33.15 13.18-64.935 36.62-88.38A125 125 0 0 1 975 537.5m0 62.5a62.5 62.5 0 0 0-44.19 18.31 62.5 62.5 0 0 0-18.31 44.19c0 16.575 6.59 32.47 18.31 44.19A62.5 62.5 0 0 0 975 725c16.575 0 32.47-6.59 44.19-18.31a62.5 62.5 0 0 0 18.31-44.19c0-16.575-6.59-32.47-18.31-44.19A62.5 62.5 0 0 0 975 600"/><path fill="#000" d="M912.5 193.75a93.8 93.8 0 0 1 66.31 27.441c17.58 17.582 27.44 41.445 27.44 66.309v67.871l40.43-40.43a31.26 31.26 0 0 1 22.07-9.131c8.285 0 16.26 3.275 22.12 9.131 5.855 5.86 9.13 13.836 9.13 22.119a31.27 31.27 0 0 1-9.13 22.071L975 475 859.13 359.082a31.22 31.22 0 0 1-9.13-22.07c0-8.281 3.28-16.212 9.13-22.071a31.369 31.369 0 0 1 22.12-9.179c4.09.003 8.135.829 11.915 2.393a31.3 31.3 0 0 1 10.155 6.786l40.43 40.43V287.5c0-8.288-3.27-16.259-9.13-22.119s-13.835-9.131-22.12-9.131H444.58c-16.806-.008-31.294-12.929-32.08-29.737a31.4 31.4 0 0 1 1.953-12.45 31.3 31.3 0 0 1 6.641-10.645 31.4 31.4 0 0 1 10.351-7.178 31.3 31.3 0 0 1 12.305-2.49z"/><path fill="#000" fill-rule="evenodd" d="M225 100a125 125 0 0 1 88.379 36.621A125 125 0 0 1 350 225a125 125 0 0 1-36.621 88.379A125 125 0 0 1 225 350a125 125 0 0 1-88.379-36.621A125 125 0 0 1 100 225a125 125 0 0 1 36.621-88.379A125 125 0 0 1 225 100m0 62.5a62.5 62.5 0 0 0-44.189 18.311A62.5 62.5 0 0 0 162.5 225a62.5 62.5 0 0 0 18.311 44.19A62.5 62.5 0 0 0 225 287.5a62.5 62.5 0 0 0 44.19-18.31A62.5 62.5 0 0 0 287.5 225a62.5 62.5 0 0 0-18.31-44.189A62.5 62.5 0 0 0 225 162.5"/></svg>

<svg width="1200" height="1200" viewBox="0 0 1200 1200" fill="none" xmlns="http://www.w3.org/2000/svg"><path d="M755.42 631.25C772.23 631.255 786.72 644.195 787.5 660.985C787.705 665.205 787.065 669.43 785.595 673.39C784.12 677.36 781.83 681.015 778.905 684.08C775.985 687.145 772.445 689.545 768.555 691.21C764.66 692.875 760.485 693.755 756.25 693.75H256.25C247.962 693.75 239.992 697.02 234.131 702.88C228.27 708.74 225 716.71 225 725V912.5C225 920.79 228.27 928.76 234.131 934.62C239.992 940.48 247.962 943.75 256.25 943.75H355.371L314.941 903.32C312.043 900.42 309.772 896.95 308.203 893.165C306.635 889.375 305.81 885.305 305.81 881.2C305.813 877.105 306.635 873.025 308.203 869.24C309.771 865.465 312.052 862.025 314.941 859.13C317.843 856.23 321.306 853.915 325.097 852.345C328.889 850.775 332.956 849.95 337.06 849.95C341.165 849.95 345.231 850.775 349.024 852.345C352.815 853.915 356.278 856.23 359.179 859.13L475 974.95L359.033 1090.82C356.141 1093.725 352.71 1096.035 348.926 1097.605C345.131 1099.18 341.022 1100.005 336.914 1100C332.816 1100.005 328.736 1099.175 324.951 1097.605C321.17 1096.035 317.733 1093.725 314.844 1090.82C311.947 1087.92 309.626 1084.5 308.057 1080.715C306.487 1076.925 305.666 1072.85 305.664 1068.75C305.664 1064.65 306.488 1060.575 308.057 1056.785C309.627 1052.995 311.941 1049.535 314.844 1046.63L355.322 1006.25H256.25C231.386 1006.25 207.523 996.39 189.942 978.81C172.36 961.225 162.5 937.365 162.5 912.5V725C162.5 700.135 172.36 676.275 189.942 658.69C207.523 641.11 231.386 631.25 256.25 631.25H755.42Z" fill="black"/><path fill-rule="evenodd" d="M662.5 850C695.65 850 727.435 863.18 750.88 886.62C774.32 910.065 787.5 941.85 787.5 975C787.5 1008.15 774.32 1039.935 750.88 1063.38C727.435 1086.82 695.65 1100 662.5 1100C629.35 1100 597.565 1086.82 574.12 1063.38C550.68 1039.935 537.5 1008.15 537.5 975C537.5 941.85 550.68 910.065 574.12 886.62C597.565 863.18 629.35 850 662.5 850ZM662.5 912.5C645.925 912.5 630.03 919.09 618.31 930.81C606.59 942.53 600 958.425 600 975C600 991.575 606.59 1007.47 618.31 1019.19C630.03 1030.91 645.925 1037.5 662.5 1037.5C679.075 1037.5 694.97 1030.91 706.69 1019.19C718.41 1007.47 725 991.575 725 975C725 958.425 718.41 942.53 706.69 930.81C694.97 919.09 679.075 912.5 662.5 912.5Z" fill="black"/><path fill-rule="evenodd" d="M975 537.5C1008.15 537.5 1039.935 550.68 1063.38 574.12C1086.82 597.565 1100 629.35 1100 662.5C1100 695.65 1086.82 727.435 1063.38 750.88C1039.935 774.32 1008.15 787.5 975 787.5C941.85 787.5 910.065 774.32 886.62 750.88C863.18 727.435 850 695.65 850 662.5C850 629.35 863.18 597.565 886.62 574.12C910.065 550.68 941.85 537.5 975 537.5ZM975 600C958.425 600 942.53 606.59 930.81 618.31C919.09 630.03 912.5 645.925 912.5 662.5C912.5 679.075 919.09 694.97 930.81 706.69C942.53 718.41 958.425 725 975 725C991.575 725 1007.47 718.41 1019.19 706.69C1030.91 694.97 1037.5 679.075 1037.5 662.5C1037.5 645.925 1030.91 630.03 1019.19 618.31C1007.47 606.59 991.575 600 975 600Z" fill="black"/><path d="M912.5 193.75C937.365 193.75 961.225 203.612 978.81 221.191C996.39 238.773 1006.25 262.636 1006.25 287.5V355.371L1046.68 314.941C1052.535 309.097 1060.475 305.812 1068.75 305.81C1077.035 305.81 1085.01 309.085 1090.87 314.941C1096.725 320.801 1100 328.777 1100 337.06C1100 345.334 1096.71 353.275 1090.87 359.131L975 475L859.13 359.082C853.28 353.223 850 345.293 850 337.012C850 328.731 853.28 320.8 859.13 314.941C862.035 312.039 865.495 309.725 869.285 308.155C873.075 306.588 877.15 305.762 881.25 305.762C885.34 305.765 889.385 306.591 893.165 308.155C896.955 309.725 900.42 312.039 903.32 314.941L943.75 355.371V287.5C943.75 279.212 940.48 271.241 934.62 265.381C928.76 259.522 920.785 256.25 912.5 256.25H444.58C427.774 256.242 413.286 243.321 412.5 226.513C412.296 222.285 412.974 218.029 414.453 214.063C415.932 210.106 418.178 206.474 421.094 203.418C424.016 200.355 427.553 197.904 431.445 196.24C435.332 194.582 439.523 193.746 443.75 193.75H912.5Z" fill="black"/><path fill-rule="evenodd" d="M225 100C258.152 100 289.937 113.179 313.379 136.621C336.821 160.063 350 191.848 350 225C350 258.152 336.821 289.937 313.379 313.379C289.937 336.821 258.152 350 225 350C191.848 350 160.063 336.821 136.621 313.379C113.179 289.937 100 258.152 100 225C100 191.848 113.179 160.063 136.621 136.621C160.063 113.179 191.848 100 225 100ZM225 162.5C208.424 162.5 192.532 169.09 180.811 180.811C169.09 192.532 162.5 208.424 162.5 225C162.5 241.576 169.09 257.469 180.811 269.19C192.532 280.911 208.424 287.5 225 287.5C241.576 287.5 257.469 280.911 269.19 269.19C280.911 257.469 287.5 241.576 287.5 225C287.5 208.424 280.911 192.532 269.19 180.811C257.469 169.09 241.576 162.5 225 162.5Z" fill="black"/></svg>
